!!!ONB: MCCC : IJH0454_01 : Extracted Monophonic Melody
!!!COM: Haydn, Joseph
!!!OPR: String Quartet in F major
!!!OMV: 1
!!!SCT: Hob.III:73 ; Op.74 No.2
!!!ODT: 1793///
**kern
*thru
*k[b-]
*F:
*clefF
*M4/4
2f
2a
=1
4cc
4a
4f
4a
=2
8cc
8a
8cc
8a
4f
4cc
=3
4ff
4cc
4a
4f
=4
8c
8B
8c
8B
8c
8e
8g
8e
=5
8c
8B
8c
8B
8c
8e
8g
8e
=6
4c
4r
4c
8.r
16c
=7
1c
=8
2f
2a
=9
4cc
4cc
4cc
4ff
=10
8ee
8ff
8gg
8ee
4cc
4ee
=11
4ff
4ff
8ff
8gg
8aa
8bb-
=12
2ccc
4aa
4ff
=13
2ccc
4aa
4ff
=14
2ddd
8ccc
8bb-
8aa
8gg
=15
2ff
4ee
4dd
=16
4cc
4cc
4cc
8dd
8b
=17
4cc
4cc
4cc
8dd
8b
=18
4cc
4r
4cc
4r
=19
4cc
2.r
=20
2g
2b-
=21
4dd
4dd
4dd
4gg
=22
8ff#
8gg
8aa
8ff#
4dd
4ff#
=23
4gg
4gg
8gg
8aa
8bb-
8ccc
=24
2ddd
4bb-
4gg
=25
2eee
4fff
4bb
=26
4ccc
4aa
4bb-
4ee
=27
1ff[
=28
4ff]
4ff
4ff
4ff
=29
1ff[
=30
4ff]
4ff
4ff
4ff
=31
4ee
4cc
4b
4dd
=32
4cc
4ccc
4cc
4ff
=33
4ee
4cc
8b
8cc
8dd
8b
=34
2.cc
8dd
8b
=35
4cc
8dd
8b
4cc
8dd
8b
=36
2.cc
8dd
8b
=37
4cc
8dd
8b
4cc
8dd
8b
=38
2cc
4dd
4ee
=39
4ff
4ccc#
4ddd
4aa
=40
4bb-
8ddd
8bb-
4ff
4ddd
=41
4ccc
4bb
4ccc
4gg#
=42
4aa
8ccc
8aa
4ff
4fff
=43
4eee
4ccc
4bb
4ddd
=44
2.ccc
4ff
=45
4ee
4cc
4b
4dd
=46
8cc
8ee
8gg
8ccc
8cc
8ccc
8b
8bb
=47
8a
8cc
8ee
8aa
4a
4g
=48
8f
8a
8cc
8ff
4f
4e
=49
4d
4c
4B
4A
=50
4G
4g
4a-
4f#
=51
8g
8G
8g
8g
4e-
8d
8c
=52
4G
4g
4a-
4f#
=53
8g
8G
8g
8g
4e-
8d
8c
=54
2g
2r
=55
1r
=56
4r
4gg
4gg
8ff
8ee
=57
2.dd
4ff#
=58
2.gg
4ff#
=59
8gg
8gg#
8aa
8ff
8gg
8ee
8ff
8dd
=60
2cc
2ee
=61
4gg
4gg
4gg
4ccc
=62
8bb
8ccc
8ddd
8bb
4gg
4ccc
=63
8bb
8ccc
8ddd
8bb
4gg
4gg#
=64
8gg#
8aa
8gg#
8aa
8ff#
8gg
8ff#
8gg
=65
8ee
8ff
8aa
8ff
8dd#
8ee
8gg
8ee
=66
8cc#
8dd
8ff
8dd
8cc
8b
8dd
8b
=67
4cc
2.r
=68
8g
8cc
8ee
8gg
8g
8gg
8g
8ff
=69
8g
8ee
2.r
=70
8g
8cc
8ee
8gg
8g
8gg
8g
8ff
=71
8g
8ee
4cc
4dd
4ee
=72
4ff
4gg
4aa
8ccc
8gg#
=73
8aa
8ee
8ff
8cc#
8dd
8a
8ff
8dd
=74
2cc
2dd
=75
2cc
2r
=76
8gg
8ccc
8eee
8ggg
8gg
8ggg
8gg
8fff
=77
8gg
8eee
2.r
=78
8gg
8ccc
8eee
8ggg
8gg
8ggg
8gg
8fff
=79
8gg
8eee
4ccc
4bb
4bb-
=80
8aa
8gg#
8aa
8ee
8ff
8ee
8ff
8cc#
=81
8dd
8a
8ff
8cc#
8dd
8a
8ff
8cc#
=82
8dd
8a
8ff
8cc#
8dd
8a
8ff
8dd
=83
8cc
8e
8g
8cc
8ee
8b
8cc
8ee
=84
1gg
=85
1b
=86
1ccc
=87
1dd
=88
4cc
4gg
8b
8cc
8dd
8b
=89
4cc
4gg
8b
8cc
8dd
8b
=90
4cc
4gg
8aa
8gg
8gg
8gg
=91
8aa
8gg
8gg
8gg
8aa
8gg
8gg
8gg
=92
4.ccc
16bb
16ccc
4.gg
16ff#
16gg
=93
4.ee
16dd
16ee
4cc
4cc
=94
4.cc
16b
16cc
4.g
16f#
16g
=95
4.e
16d
16e
4c
4c
=96
4c
4r
4c
4c
=97
4c
2.r
=98
1d-
=99
1e
=100
1c#
=101
1e
=102
2a
2cc#
=103
4ee
4ee
4ee
4aa
=104
8gg#
8aa
8bb
8gg#
4ee
4gg#
=105
4aa
4aa
8aa
8bb
8ccc#
8ddd
=106
2eee
4ccc#
4aa
=107
2eee
4ccc#
4aa
=108
2fff#
8eee
8ddd
8ccc#
8bb
=109
2aa
4gg#
4ff#
=110
4ee
4ee
4ee
8ff#
8dd#
=111
4ee
4ee
4ee
8ff#
8dd#
=112
2ee
4dd
8cc
8b
=113
2a
2r
=114
1r
=115
1r
=116
1r
=117
2cc
2ee
=118
4gg
4gg
4gg
8ff
8ee
=119
2dd
2ff
=120
4aa
12a
12cc
12ee
4aa
4aa
=121
4aa
4b
4gg
4gg
=122
8gg
8ff
8ee
8dd
8cc#
8b-
8a
8g
=123
4f
4f
4f
8e
8d
=124
2.c#
4c
=125
2.B
4B-
=126
4A
4ccc
4ccc
8bb-
8aa
=127
4gg
4gg
4gg
4aa-
=128
4gg
4r
4r
4b
=129
4cc
2.r
=130
1r
=131
1r
=132
2cc
2ee-
=133
4gg
4gg
4gg
4ccc
=134
8bb
8ccc
8ddd
8bb
8ff
8gg
8aa-
8ff
=135
8dd
8ee-
8ff
8dd
8b
8cc
8dd
8b
=136
8cc
8dd
8ee-
8cc
8a
8b-
8cc
8a
=137
8f#
8g
8a
8f#
8d
8e-
8d
8c
=138
8B-
8c
8B-
8A
8G
8b-
8a
8g
=139
8f#
8g
8a
8f#
4d
4cc#
=140
2.dd
4ccc#
=141
2.ddd
4bb
=142
2.ccc
4aa
=143
4bb-
4ff
4ff
8ee-
8dd
=144
2cc
2ee-
=145
4gg
4gg
4gg
8ff
8ee-
=146
4dd
4dd
4dd
4ee-
=147
4dd
4dd
4dd
4ee-
=148
4dd
4dd
4dd
4ee-
=149
4dd
4dd
4dd
4ee-
=150
4dd
4dd
4dd
4ee-
=151
4dd
4dd
4dd
4ee-
=152
4dd
4dd
4dd
4ee-
=153
8dd
8ee-
8ff
8gg
8aa-
8gg
8aa-
8ff
=154
8gg
8aa-
8bb-
8gg
8ee-
8ff
8gg
8ee-
=155
8dd
8ee-
8ff
8ee-
8dd
8cc
8b-
8a
=156
8b-
8cc
8b-
8a-
8g
8f
8e-
8d
=157
2e-
2g
=158
4b-
4b-
4b-
4ee-
=159
8dd
8ee-
8ff
8ee-
8dd
8b-
8cc
8dd
=160
8ee-
8ff
8gg
8aa-
8bb-
8aa-
8gg
8ff
=161
8ee
8ff
8gg
8ff
8ee
8cc
8dd
8ee
=162
8ff
8gg
8aa-
8bb-
8ccc
8bb-
8aa-
8gg
=163
8ff#
8gg
8aa
8gg
8ff#
8dd
8ee
8ff#
=164
8gg
8aa
8bb-
8aa
8gg
8ff
8ee
8dd
=165
8cc#
8dd
8ee
8cc#
8g
8a
8b-
8g
=166
8f
8g
8a
8f
8d
8e
8f
8d
=167
8c#
8d
8e
8c#
8A
8B
8c#
8A
=168
8d
8e
8f
8d
8G#
8A
8B
8G#
=169
8A
8G#
8A
8G#
8A
8c#
8e
8c#
=170
8A
8G#
8A
8G#
8A
8c#
8e
8c#
=171
4A
4r
4A
8.r
16A
=172
2A
2r
=173
1r
=174
1d
=175
1e
=176
2f
2a
=177
4cc
4cc
4cc
4ff
=178
8ee
8ff
8gg
8ee
4cc
4ee
=179
4ff
4ff
8ff
8gg
8aa
8bb-
=180
2ccc
4aa
4ff
=181
2ccc
4aa
4ff
=182
2ddd
8ccc
8bb-
8aa
8gg
=183
2ff
4ee
4dd
=184
4cc
4cc
4cc
8dd
8b
=185
4cc
4cc
4cc
8dd
8b
=186
4cc
4r
4cc
4r
=187
4cc
2.r
=188
2g
2b-
=189
4dd
4dd
4dd
4gg
=190
8ff#
8gg
8aa
8ff#
4dd
4ff#
=191
4gg
4gg
8gg
8aa
8bb-
8ccc
=192
2ddd
4bb-
4gg
=193
2eee
4fff
4bb
=194
4ccc
4aa
4bb-
4ee
=195
1ff[
=196
4ff]
4ff
4ff
4ff
=197
1ff[
=198
4ff]
4ff
4ff
4ccc#
=199
4ddd
4ccc#
4ddd
4aa
=200
4bb-
8ddd
8bb-
4ff
4ddd
=201
4ccc
4bb
4ccc
4gg#
=202
4aa
8ccc
8aa
4ff
4fff
=203
4eee
4ccc
4bb
4ddd
=204
2.ccc
4eee-
=205
4ddd
4bb-
4aa
4ccc
=206
2.bb-
4ddd
=207
4ccc
4aa
4bb-
4ddd
=208
4ccc
4gg
4aa
4ccc
=209
4bb-
4aa
4gg
4ff
=210
2ee
2r
=211
1r
=212
2b
2dd
=213
4ff
4ff
4ff
4b
=214
2cc
4ee
8gg
8bb-
=215
4ddd
4ddd
4ddd
4eee
=216
4fff
4fff
8fff
8eee
8ddd
8ccc
=217
8bb-
8ccc
8ddd
8bb-
8gg
8aa
8bb-
8gg
=218
8aa
8bb-
8ccc
8aa
8ff
8gg
8aa
8ff
=219
8gg
8aa
8bb-
8gg
8ee
8ff
8gg
8ee
=220
8ff
8gg
8aa
8ff
8dd
8ee
8ff
8dd
=221
8ee
8dd
8cc
8b
8cc
8dd
8ee
8ff
=222
8gg
8ff
8ee
8dd
8ee
8ff
8gg
8aa
=223
8bb-
8gg
8gg
8ee
8ee
8cc
8cc
8b-
=224
8b-
8g
8g
8e
8e
8c
8c
8B-
=225
4A
2.r
=226
8cc
8ff
8aa
8ccc
8cc
8ccc
8cc
8bb-
=227
8cc
8aa
2.r
=228
8cc
8ff
8aa
8ccc
8cc
8ccc
8cc
8bb-
=229
8cc
8aa
4ff
4ee
4ee-
=230
8dd
8ee
8ff
8ee
8ff
8ff#
8gg
8ff#
=231
8gg
8dd
8bb-
8ff#
8gg
8dd
8bb-
8ff#
=232
8gg
8dd
8bb-
8ff#
8gg
8dd
8bb-
8ee
=233
8ff
8cc
8aa
8ee
8ff
8cc
8aa
8ee
=234
8ff
8cc
8aa
8ee
8ff
8cc
8aa
8cc
=235
1b
=236
1b-
=237
8a
8cc
8ff
8cc
8dd
8a
8b-
8g
=238
8f
8a
8cc
8a
8ff
8cc
8aa
8ff
=239
1ccc
=240
1ee
=241
1f
=242
1gg
=243
4ff
4ccc
8ee
8ff
8gg
8ee
=244
4ff
4ccc
8ee
8ff
8gg
8ee
=245
4ff
4cc
8dd
8cc
8cc
8cc
=246
8dd
8cc
8cc
8cc
8dd
8cc
8cc
8cc
=247
4.ff
16ee
16ff
4.cc
16b
16cc
=248
4.a
16g
16a
4.f
16e
16f
=249
4.e-
16d
16e-
4.c
16B-
16c
=250
4.A
16G
16A
4.a
16g
16a
=251
8b-
8B-
8d
8f
8b-
8d
8f
8b-
=252
8dd
8f
8b-
8dd
8ff
8ee
8ff
8dd
=253
4cc
4b-
4a
4g
=254
2f
2a
=255
4cc
4cc
4cc
4ff
=256
8ee
8ff
8gg
8ee
4cc#
4dd
=257
8cc
8dd
8ee-
8cc
4a
4b-
=258
4f#
4g
4e
4f
=259
4g
4r
4e
4r
=260
4f
4r
4gg
4r
=261
4aa
2.r
==
*-
